X: 20286
T: Joey Clement's
R: polka
M: 2/4
K: Edorian
B2 BA|FE D2|EF AF|EF A2|
B2 BA|FE DE|FA AF|E2 E2:|
|:Be ed|Be e2|dc BA|Bc d2|
ed Bd/B/|AF DE|FA AF|E2 E2:|

